X:837
M:6/8
L:1/8
K:C Minor
E/G/|C2c c2G|BGB FDB,|C2c c2G|cde d2c|C2c c2G|BGB FDB,|E3 F3|
f|g2(c c)de|dcB fdB|g2(c c)dc|gaf gec|g2(c c)de|dcB fdB|e>fg fed|gec c2f|
g2c cde|dcB fdB|g2(c c)dc|gaf gec|gbg fbe|dfb fdB|E>FG D>EF|GEC C2||

